X:53231
F:http://www.vwml.org/record/HAM/5/32/31%%VWML:HAM-5-32-31-0
T:Well met, well met, my own true love
S:Mrs Marina Russell, Upwey coll. HED Hammond
O:England
A:Dorset
N:Transcribed from HAM-02-236.gif
F:HAM-05-32-31.abc
Z:EFDSS;PJHeadford
M:C
L:1/4
Q:2/4=50
K:C
A|AG/F/ ED/E/|(F2E) E|D3 A|d>e fe/d/&d>e fe|c2 de&d2A/B/c|d3A/ A/|
d>e (fe)|d2 AG|F2 GG|(dc) Bc|A>G EF|D3||
W:Transcribed from HAM-02-236.gif Words below from HAM-01-691.gif Hammond's field notes W:
W:Well met, well met, my own true love
W:Long time have I been absent from thee
W:I am lately come from the salt sea
W:And 'tis all for the sake, my love, of thee
W:
W:I have 3 ships all on the salt sea
W:And (by) one of them has brought me safe to land
W:I've 4 & 20 mariners on board
W:You shall have music at your command
W:
W:The ship, my love, that you shall sail in
W:It shall be of the fine beaten gold
W:I've 4 & 20 &c
W:It is a beauty for to behold
W:
W:The MIDI file HAM-05-32-31.mid has 2 verses, the second using the alternative notes.
